assets/Other/accordion-tips.svg

<?xml version="1.0" encoding="UTF-8"?>
<svg width="13px" height="13px" viewBox="0 0 13 13" version="1.1" xmlns="http://www.w3.org/2000/svg" xmlns:xlink="http://www.w3.org/1999/xlink">
    <title>iconmonstr-info-6</title>
    <g id="Symbols" stroke="none" stroke-width="1" fill="none" fill-rule="evenodd">
        <g id="Group-3" transform="translate(0.000000, -3.000000)" fill="#FC6D55" fill-rule="nonzero">
            <g id="iconmonstr-info-6" transform="translate(0.000000, 3.000000)">
                <path d="M6.5,1.08333333 C9.48675,1.08333333 11.9166667,3.51325 11.9166667,6.5 C11.9166667,9.48675 9.48675,11.9166667 6.5,11.9166667 C3.51325,11.9166667 1.08333333,9.48675 1.08333333,6.5 C1.08333333,3.51325 3.51325,1.08333333 6.5,1.08333333 Z M6.5,0 C2.910375,0 0,2.910375 0,6.5 C0,10.089625 2.910375,13 6.5,13 C10.089625,13 13,10.089625 13,6.5 C13,2.910375 10.089625,0 6.5,0 Z M6.49945833,3.11458333 C6.87320833,3.11458333 7.17708333,3.41791667 7.17708333,3.79166667 C7.17708333,4.16541667 6.87320833,4.46875 6.49945833,4.46875 C6.12570833,4.46875 5.82291667,4.16541667 5.82291667,3.79166667 C5.82291667,3.41791667 6.12570833,3.11458333 6.49945833,3.11458333 Z M7.58333333,9.75 L5.41666667,9.75 L5.41666667,9.20833333 C5.67883333,9.111375 5.95833333,9.09945833 5.95833333,8.81020833 L5.95833333,6.39058333 C5.95833333,6.10133333 5.67883333,6.05583333 5.41666667,5.958875 L5.41666667,5.41720833 L7.04166667,5.41720833 L7.04166667,8.81075 C7.04166667,9.10054167 7.32170833,9.113 7.58333333,9.208875 L7.58333333,9.75 Z" id="Shape"></path>
            </g>
        </g>
    </g>
</svg>

<svg xmlns="http://www.w3.org/2000/svg" width="13" height="13" viewBox="0 0 13 13"><title>iconmonstr-info-6</title><path fill="#fc6d55" fill-rule="nonzero" d="M6.5 1.083A5.423 5.423 0 0 1 11.917 6.5 5.423 5.423 0 0 1 6.5 11.917 5.423 5.423 0 0 1 1.083 6.5 5.423 5.423 0 0 1 6.5 1.083M6.5 0a6.5 6.5 0 1 0 0 13 6.5 6.5 0 0 0 0-13m0 3.115a.678.678 0 1 1 0 1.355.678.678 0 0 1 0-1.355M7.582 9.75H5.417v-.542c.262-.097.541-.109.541-.398V6.39c0-.289-.28-.334-.541-.431v-.542h1.625v3.394c0 .29.28.302.541.398z"/></svg>
